X:542
T:The 42 pound cheque
R:Polka
O:Ireland
S:?
Z:Transcription, chords:Mike Long
M:2/4
L:1/16
K:D
"D"A2d2 "G"B2dB|"D"A2D2 F2D2|"G"G2E2 B2E2|"D"A2AG F2D2|\
"D"A2d2 "G"B2dB|"D"A2D2 F2A2|[1 "G"G2E2 "A"e2ef|"D"e2d2 d2dB:|[2 "G"G2E2 "A"A2AG|"D"F2D2 D2A2|]
|:"D"D2d2 f2d2|"G"g2gf e2d2|"A"cBA2 e2A2|e2ed cBA2|\
"D"D2f2 f2ef|"G"g2f2 e3d|"A"c2A2 B2c2|[1 "D"d4 d2dB:|[2 "D"d4 d4|]
